X: 267
T:Da Greenland Man's Tune
M:6/8
L:1/8
Q:3/8=84
K:EMix
d2B c2A|BcB E3 |F2=G A2G|FD2 D3 |
d2B c2A|BcB E3 |G2A  B2G|A3  A3:|
B2B B2c|d2d d2B|A2A  A2F|D2E F2A|
B2B B2c|d2d d2B|A2F  F2D|E3  E3:|

In some musical idioms, like the more archaic forms of Hungarian folk
music, variable thirds originated as NEUTRAL thirds - the pitch used
to be the same throughout the tune, midway between a major and a minor
third, like the C on a Highland pipe.  There are probably Scottish tunes
that have developed like that, but I haven't identified one.

Mode-shifting is a common feature of Scandinavian music, of which Shetland
music in in some ways an offshoot.  This pair of Shetland tunes (often
played together) both shift mode.  The first one simply fills a gap, with
the first part hexatonic and the later ones heptatonic:

